X: 27
T:Old Man of Mow
% Nottingham Music Database
S:Mick Peat
M:6/8
K:G
G2A |"G"B2B BAB|"C"c2c cdc|"G"B2B "Em"BAG|"Am"A3 "D"AGA|
"G"BcB BAB|"C"cdc cBc|"G"BAB "D"AGA|1"G"G3 :|2G3 G2d||
"G"dBd dBg|"C"ece ecg|"G"dBd dBg|"D"cAc cAg|
"G"dBd dBg|"C"ece ecg|"G"dBd "D"cBA|1"G"G3 G2d:|2"G"G3 G2:|


